social/icons/52-min.svg

<svg xmlns="http://www.w3.org/2000/svg" viewBox="0 0 266.67 300"><path d="M100 66.67h33.33V33.33h33.34V0h100v100h-33.34v33.33H200v33.34h33.33V200h33.34v100h-100v-33.33h-33.34v-33.34H100V300H0V0h100Z"/></svg>

<svg xmlns="http://www.w3.org/2000/svg" viewBox="0 0 266.67 300"><path d="M100, 66.67L133.33, 66.67L133.33, 33.33L166.67, 33.33L166.67, 0L266.67, 0L266.67, 100L233.33, 100L233.33, 133.33L200, 133.33L200, 166.67L233.33, 166.67L233.33, 200L266.67, 200L266.67, 300L166.67, 300L166.67, 266.67L133.33, 266.67L133.33, 233.33L100, 233.33L100, 300L0, 300L0, 0L100, 0Z"/></svg>
